X: 11
M:4/4
L:1/8
K:G
d2 ec B2 cA|GFAF G2 dc|BGcA BGAF|G2 G2 G2:|
|:Bc|d2 gf edcB|edef g2 d2|efgf edcB|ABcA GFED|
d2 ec B2 cA|GFAF G2 dc|BGcA GFAF|G2 G2 G2:||

